libs/ui/packages/crypto-icons/src/svg/DROP.svg

<svg width="24" height="24" viewBox="0 0 24 24" fill="none">
<path d="M17.3505 13.1003C16.9373 11.28 15.6525 9.27301 15.6525 9.27301C17.133 13.3133 16.563 16.3605 16.1708 18.0893C16.1708 18.0893 15.6533 20.0228 16.767 18.4118C18.156 16.3958 17.3505 13.1003 17.3505 13.1003Z" fill="white"/>
<path d="M13.6935 5.93325C14.4637 8.67675 14.8125 11.0055 14.9212 12.9473C15.1125 16.2563 14.6077 18.4335 14.2942 19.5833C14.1937 19.9575 14.6122 20.2358 14.856 19.953L14.8605 19.9485C15.4695 19.2518 15.7575 17.6198 15.8925 16.1873L15.9315 15.717C16.0575 13.992 15.984 12.2513 15.579 10.5833C14.8342 7.50525 13.6935 5.93325 13.6935 5.93325ZM12.3135 10.7663C12.126 6.26025 11.7862 2.259 11.7862 2.259C11.7862 2.259 11.4427 6.06 11.2552 10.4655C11.2252 11.1803 11.1982 11.907 11.1765 12.6383C11.1465 13.701 11.133 14.7683 11.133 15.7995C11.1375 17.6325 11.208 19.3523 11.373 20.724C11.4382 21.2677 12.1432 21.2677 12.2085 20.724C12.3217 19.788 12.387 18.6383 12.4132 17.3753C12.4376 16.0098 12.4319 14.644 12.396 13.2788C12.3735 12.4425 12.348 11.598 12.3135 10.7663ZM7.04999 16.1955C6.94723 15.3463 6.92363 14.4893 6.97949 13.6358C7.02299 12.9653 7.11899 12.2468 7.28474 11.4803C7.43699 10.779 7.64549 10.0433 7.92899 9.2685C7.92899 9.2685 7.02299 10.6838 6.49199 12.2115C6.38699 12.504 6.30074 12.804 6.23474 13.0958C6.23474 13.0958 6.06524 13.8623 6.03974 14.8853C6.02174 15.5948 6.07799 16.4348 6.30449 17.2275C6.41897 17.6425 6.59061 18.0395 6.81449 18.4072C6.81449 18.4072 7.92899 20.0663 7.41074 18.0848C7.24951 17.4635 7.12876 16.8324 7.04924 16.1955H7.04999Z" fill="white"/>
<path d="M8.63849 15.3075C8.60214 14.4104 8.61666 13.512 8.68199 12.6165C8.72725 11.9554 8.79704 11.2962 8.89124 10.6403C9.08624 9.22951 9.40499 7.66651 9.88874 5.93326C9.88874 5.93326 8.74274 7.50526 7.99874 10.5833C7.95899 10.7483 7.92374 10.914 7.88924 11.0753C7.75424 11.7458 7.66724 12.4253 7.62374 13.113C7.57124 13.9755 7.58474 14.8455 7.64624 15.7125L7.68524 16.1873C7.82024 17.6198 8.10299 19.2518 8.71649 19.9485L8.72099 19.953C8.96474 20.232 9.38699 19.953 9.28349 19.5833C9.05624 18.7343 8.72099 17.3235 8.63849 15.3075Z" fill="white"/>
<path d="M10.5412 15.477C10.5167 14.4787 10.5122 13.48 10.5277 12.4815C10.5367 11.8245 10.554 11.1315 10.5847 10.4048C10.659 8.52825 11.0115 5.8155 11.2552 3.51675C11.2552 3.51675 10.0537 6.003 9.50475 10.488C9.43125 11.1015 9.3615 11.763 9.309 12.4778L9.27 13.0088C9.27 13.0088 9.20475 13.9575 9.23025 15.2378C9.2655 16.8833 9.44775 19.0778 10.1272 20.5148C10.1497 20.5583 10.1752 20.5973 10.2097 20.6273L10.2142 20.6325C10.4715 20.8763 10.8675 20.6453 10.833 20.2665C10.6732 18.6744 10.5756 17.0767 10.5405 15.477H10.5412ZM13.0312 15.477C13.0537 14.58 13.062 13.5795 13.0447 12.4815C13.0357 11.8245 13.0185 11.1315 12.9877 10.4048C12.9142 8.52825 12.5617 5.8155 12.3172 3.51675C12.3172 3.51675 13.5195 6.003 14.0677 10.488C14.142 11.1015 14.2117 11.763 14.2635 12.4778L14.3032 13.0088C14.3032 13.0088 14.3685 13.9575 14.3422 15.2378C14.307 16.8833 14.1247 19.0778 13.4452 20.5148C13.4253 20.5572 13.3973 20.5955 13.3627 20.6273L13.3582 20.6325C13.101 20.8763 12.7057 20.6453 12.7402 20.2665C12.8272 19.4438 12.975 17.811 13.0312 15.477Z" fill="white"/>
<path d="M17.5408 13.4049C17.1276 11.5846 15.8428 9.57761 15.8428 9.57761C17.3233 13.6179 16.7533 16.6651 16.3611 18.3939C16.3611 18.3939 15.8436 20.3274 16.9573 18.7164C18.3463 16.7004 17.5408 13.4049 17.5408 13.4049Z" fill="#242D3D"/>
<path d="M13.8838 6.23785C14.654 8.98135 15.0028 11.3101 15.1115 13.2518C15.3028 16.5608 14.798 18.7381 14.4845 19.8878C14.384 20.2621 14.8025 20.5403 15.0463 20.2576L15.0508 20.2531C15.6598 19.5563 15.9478 17.9243 16.0828 16.4918L16.1218 16.0216C16.2478 14.2966 16.1743 12.5558 15.7693 10.8878C15.0245 7.80985 13.8838 6.23785 13.8838 6.23785ZM12.5038 11.0708C12.3163 6.56485 11.9765 2.5636 11.9765 2.5636C11.9765 2.5636 11.633 6.3646 11.4455 10.7701C11.4155 11.4848 11.3885 12.2116 11.3668 12.9428C11.3368 14.0056 11.3233 15.0728 11.3233 16.1041C11.3278 17.9371 11.3983 19.6568 11.5633 21.0286C11.6285 21.5723 12.3335 21.5723 12.3988 21.0286C12.512 20.0926 12.5773 18.9428 12.6035 17.6798C12.6279 16.3144 12.6222 14.9486 12.5863 13.5833C12.5638 12.7471 12.5383 11.9026 12.5038 11.0708ZM7.2403 16.5001C7.13753 15.6509 7.11393 14.7939 7.1698 13.9403C7.2133 13.2698 7.3093 12.5513 7.47505 11.7848C7.6273 11.0836 7.8358 10.3478 8.1193 9.5731C8.1193 9.5731 7.2133 10.9883 6.6823 12.5161C6.5773 12.8086 6.49105 13.1086 6.42505 13.4003C6.42505 13.4003 6.25555 14.1668 6.23005 15.1898C6.21205 15.8993 6.2683 16.7393 6.4948 17.5321C6.60928 17.9471 6.78092 18.3441 7.0048 18.7118C7.0048 18.7118 8.1193 20.3708 7.60105 18.3893C7.43982 17.7681 7.31906 17.137 7.23955 16.5001H7.2403Z" fill="#242D3D"/>
<path d="M8.8288 15.6121C8.79245 14.715 8.80697 13.8166 8.8723 12.9211C8.91755 12.26 8.98735 11.6008 9.08155 10.9449C9.27655 9.5341 9.5953 7.9711 10.0791 6.23785C10.0791 6.23785 8.93305 7.80985 8.18905 10.8879C8.1493 11.0529 8.11405 11.2186 8.07955 11.3799C7.94455 12.0504 7.85755 12.7299 7.81405 13.4176C7.76155 14.2801 7.77505 15.1501 7.83655 16.0171L7.87555 16.4919C8.01055 17.9244 8.2933 19.5564 8.9068 20.2531L8.9113 20.2576C9.15505 20.5366 9.5773 20.2576 9.4738 19.8879C9.24655 19.0389 8.9113 17.6281 8.8288 15.6121Z" fill="#242D3D"/>
<path d="M10.7316 15.7816C10.707 14.7833 10.7025 13.7846 10.7181 12.7861C10.7271 12.1291 10.7443 11.4361 10.7751 10.7094C10.8493 8.83285 11.2018 6.1201 11.4456 3.82135C11.4456 3.82135 10.2441 6.3076 9.69505 10.7926C9.62155 11.4061 9.5518 12.0676 9.4993 12.7824L9.4603 13.3134C9.4603 13.3134 9.39505 14.2621 9.42055 15.5424C9.4558 17.1879 9.63805 19.3824 10.3176 20.8194C10.3401 20.8629 10.3656 20.9019 10.4001 20.9319L10.4046 20.9371C10.6618 21.1809 11.0578 20.9499 11.0233 20.5711C10.8635 18.979 10.766 17.3813 10.7308 15.7816H10.7316ZM13.2216 15.7816C13.2441 14.8846 13.2523 13.8841 13.2351 12.7861C13.2261 12.1291 13.2088 11.4361 13.1781 10.7094C13.1046 8.83285 12.7521 6.1201 12.5076 3.82135C12.5076 3.82135 13.7098 6.3076 14.2581 10.7926C14.3323 11.4061 14.4021 12.0676 14.4538 12.7824L14.4936 13.3134C14.4936 13.3134 14.5588 14.2621 14.5326 15.5424C14.4973 17.1879 14.3151 19.3824 13.6356 20.8194C13.6156 20.8618 13.5876 20.9001 13.5531 20.9319L13.5486 20.9371C13.2913 21.1809 12.8961 20.9499 12.9306 20.5711C13.0176 19.7484 13.1653 18.1156 13.2216 15.7816Z" fill="#242D3D"/>
</svg>

<svg width="24" height="24" viewBox="0 0 24 24" fill="none"><path fill="#fff" d="M17.35 13.1c-.413-1.82-1.698-3.827-1.698-3.827 1.481 4.04.911 7.087.519 8.816 0 0-.518 1.934.596.323 1.389-2.016.584-5.312.584-5.312"/><path fill="#fff" d="M13.694 5.933c.77 2.744 1.118 5.073 1.227 7.014.192 3.31-.313 5.486-.627 6.636-.1.375.318.653.562.37l.005-.005c.608-.696.896-2.328 1.031-3.76l.04-.471c.126-1.725.052-3.466-.353-5.134-.745-3.078-1.886-4.65-1.886-4.65m-1.38 4.833c-.188-4.506-.528-8.507-.528-8.507s-.343 3.801-.53 8.207a113 113 0 0 0-.122 5.334c.003 1.833.074 3.552.239 4.924.065.544.77.544.836 0 .113-.936.178-2.086.204-3.349a93 93 0 0 0-.017-4.096c-.023-.836-.048-1.681-.083-2.513m-5.264 5.43a14 14 0 0 1-.07-2.56c.043-.67.139-1.39.305-2.156.152-.701.36-1.437.644-2.212 0 0-.906 1.416-1.437 2.943a8 8 0 0 0-.257.885s-.17.766-.195 1.79c-.018.709.038 1.549.264 2.342.115.414.287.811.51 1.18 0 0 1.115 1.658.597-.323a15 15 0 0 1-.362-1.89z"/><path fill="#fff" d="M8.638 15.308a24 24 0 0 1 .044-2.691q.068-.992.21-1.977a36 36 0 0 1 .997-4.707s-1.146 1.572-1.89 4.65q-.059.249-.11.492a15 15 0 0 0-.265 2.038c-.053.863-.04 1.733.022 2.6l.04.474c.134 1.433.417 3.065 1.03 3.761l.005.005c.244.279.666 0 .562-.37a19 19 0 0 1-.645-4.275"/><path fill="#fff" d="M10.541 15.477a75 75 0 0 1-.013-2.995q.012-.986.057-2.077c.074-1.877.426-4.59.67-6.888 0 0-1.201 2.486-1.75 6.971a43 43 0 0 0-.196 1.99l-.039.53s-.065.95-.04 2.23c.035 1.645.218 3.84.897 5.277a.4.4 0 0 0 .083.112l.004.006c.258.243.653.012.619-.366a62 62 0 0 1-.293-4.79zm2.49 0a73 73 0 0 0 .014-2.995 72 72 0 0 0-.057-2.077c-.074-1.877-.426-4.59-.67-6.888 0 0 1.202 2.486 1.75 6.971.074.614.144 1.275.196 1.99l.04.53s.064.95.038 2.23c-.035 1.645-.217 3.84-.897 5.277a.4.4 0 0 1-.082.112l-.005.006c-.257.243-.652.012-.618-.366a59 59 0 0 0 .291-4.79"/><path fill="#242d3d" d="M17.54 13.405c-.412-1.82-1.697-3.827-1.697-3.827 1.48 4.04.91 7.087.518 8.816 0 0-.517 1.933.596.322 1.39-2.016.584-5.311.584-5.311"/><path fill="#242d3d" d="M13.884 6.238c.77 2.743 1.119 5.072 1.227 7.014.192 3.309-.313 5.486-.626 6.636-.101.374.318.652.561.37l.005-.005c.609-.697.897-2.329 1.032-3.761l.039-.47c.126-1.725.052-3.466-.353-5.134-.745-3.078-1.885-4.65-1.885-4.65m-1.38 4.833a223 223 0 0 0-.527-8.507s-.344 3.8-.532 8.206c-.03.715-.056 1.442-.078 2.173-.03 1.063-.044 2.13-.044 3.161.005 1.833.075 3.553.24 4.925.066.543.77.543.836 0 .113-.936.178-2.086.205-3.35a93 93 0 0 0-.018-4.096c-.022-.836-.048-1.68-.082-2.512M7.24 16.5a14 14 0 0 1-.07-2.56c.043-.671.14-1.39.305-2.156.152-.701.36-1.437.644-2.212 0 0-.906 1.415-1.437 2.943a8 8 0 0 0-.257.884s-.17.767-.195 1.79c-.018.71.038 1.55.265 2.342.114.415.286.812.51 1.18 0 0 1.114 1.659.596-.323A15 15 0 0 1 7.24 16.5"/><path fill="#242d3d" d="M8.829 15.612a24 24 0 0 1 .043-2.69q.068-.993.21-1.977a36 36 0 0 1 .997-4.707s-1.146 1.572-1.89 4.65q-.059.248-.11.492a15 15 0 0 0-.265 2.038c-.052.862-.039 1.732.023 2.6l.039.474c.135 1.432.417 3.064 1.03 3.761l.005.005c.244.279.666 0 .563-.37a19 19 0 0 1-.645-4.276"/><path fill="#242d3d" d="M10.732 15.782a74 74 0 0 1-.014-2.996c.01-.657.026-1.35.057-2.077.074-1.876.427-4.589.67-6.888 0 0-1.2 2.487-1.75 6.972a43 43 0 0 0-.196 1.99l-.039.53s-.065.95-.04 2.23c.036 1.645.218 3.84.898 5.276a.4.4 0 0 0 .082.113l.005.005c.257.244.653.013.618-.366a62 62 0 0 1-.292-4.79m2.49 0c.022-.897.03-1.898.013-2.996a73 73 0 0 0-.057-2.077c-.073-1.876-.426-4.589-.67-6.888 0 0 1.202 2.487 1.75 6.972.074.613.144 1.275.196 1.99l.04.53s.065.95.039 2.23c-.036 1.645-.218 3.84-.897 5.276a.4.4 0 0 1-.083.113l-.004.005c-.258.244-.653.013-.618-.366a59 59 0 0 0 .29-4.79"/></svg>
